X:1
T:Variations 2
L:1/4
M:4/4
V:1
V:2 clef=bass
K:C
[V:1] D F A c | e d c B | d c B A | _B F/^C/ C2 :|
[V:2] [D,F,C]4 | [G,,F,B,]4 | [C,E,B,]4 | [A,,G,^C]4 :|